;FLAVOR:Marlin
;TIME:1407
;Filament used: 1.16872m
;Layer height: 0.2
;MINX:38.9
;MINY:35.4
;MINZ:0.2
;MAXX:161.1
;MAXY:178.6
;MAXZ:4
;Generated with Cura_SteamEngine 4.6.0
M140 S60
M105
M190 S60
M104 S230
M105
M109 S230
M82 ;absolute extrusion mode
; -- START GCODE --
G21                     ;set units to millimetres
G90                     ;set to absolute positioning
M106 S0                 ;set fan speed to zero (turned off)
G28 X0 Y0               ;move to the X/Y origin (Home)
G28 Z0                  ;move to the Z origin (Home)
G1 Z15.0 F1200          ;move Z to position 15.0 mm
G92 E0                  ;zero the extruded length
G1 E20 F200             ;extrude 20mm of feed stock
G92 E0                  ;zero the extruded length again
G1 F7200                ;set feedrate to 120 mm/s
; -- end of START GCODE --
G92 E0
G92 E0
;LAYER_COUNT:20
;LAYER:0
M107
G0 F4500 X118.499 Y35.85 Z0.2
;TYPE:SKIRT
G1 F1200 X118.99 Y35.969 E0.01848
G1 X119.457 Y36.163 E0.03699
G1 X119.887 Y36.429 E0.05548
G1 X120.323 Y36.805 E0.07655
G1 X120.546 Y37.02 E0.08788
G1 X122.782 Y39.256 E0.20357
G1 X122.817 Y39.291 E0.20538
G1 X123.289 Y39.778 E0.2302
G1 X123.554 Y40.089 E0.24515
G1 X123.824 Y40.516 E0.26363
G1 X123.938 Y40.755 E0.27332
G1 X124.212 Y41.399 E0.29892
G1 X125.344 Y43.949 E0.401
G1 X126.52 Y46.406 E0.50065
G1 X127.774 Y48.85 E0.60115
G1 X129.09 Y51.246 E0.70117
G1 X130.482 Y53.615 E0.80169
G1 X131.929 Y55.927 E0.90148
G1 X133.451 Y58.212 E1.00193
G1 X135.013 Y60.42 E1.10088
G1 X136.689 Y62.651 E1.20297
G1 X138.361 Y64.752 E1.30121
G1 X140.16 Y66.885 E1.4033
G1 X141.956 Y68.895 E1.50192
G1 X143.862 Y70.912 E1.60345
G1 X145.77 Y72.819 E1.70214
G1 X147.783 Y74.721 E1.80346
G1 X149.82 Y76.539 E1.90335
G1 X151.918 Y78.308 E2.00376
G1 X154.039 Y79.997 E2.10295
G1 X156.25 Y81.655 E2.20406
G1 X158.145 Y83.003 E2.28915
G1 X158.553 Y83.333 E2.30834
G1 X159.061 Y83.823 E2.33417
G1 X159.427 Y84.264 E2.35514
G1 X159.793 Y84.806 E2.37906
G1 X160.112 Y85.403 E2.40383
G1 X160.343 Y85.978 E2.4265
G1 X160.494 Y86.485 E2.44585
G1 X160.587 Y86.911 E2.46181
G1 X160.666 Y87.532 E2.48471
G1 X160.696 Y88.133 E2.50672
G1 X160.7 Y88.435 E2.51777
G1 X160.7 Y171.336 E5.5508
G1 X160.692 Y171.926 E5.57239
G1 X160.683 Y172.125 E5.57968
G1 X160.641 Y172.679 E5.60001
G1 X160.555 Y173.243 E5.62088
G1 X160.413 Y173.805 E5.64209
G1 X160.244 Y174.287 E5.66077
G1 X159.92 Y174.977 E5.68866
G1 X159.563 Y175.549 E5.71333
G1 X159.172 Y176.047 E5.7365
G1 X158.677 Y176.561 E5.7626
G1 X158.23 Y176.931 E5.78383
G1 X157.856 Y177.194 E5.80056
G1 X157.4 Y177.46 E5.81987
G1 X156.98 Y177.662 E5.83693
G1 X156.561 Y177.828 E5.85341
G1 X156.015 Y177.994 E5.87429
G1 X155.589 Y178.087 E5.89025
G1 X154.968 Y178.166 E5.91315
G1 X154.363 Y178.196 E5.93531
G1 X154.027 Y178.2 E5.94761
G1 X46.164 Y178.2 E9.8939
G1 X45.574 Y178.192 E9.91548
G1 X45.375 Y178.183 E9.92277
G1 X44.821 Y178.141 E9.9431
G1 X44.257 Y178.055 E9.96397
G1 X43.69 Y177.911 E9.98538
G1 X43.209 Y177.742 E10.00403
G1 X42.523 Y177.42 E10.03175
G1 X41.951 Y177.063 E10.05642
G1 X41.549 Y176.754 E10.07497
G1 X41.202 Y176.445 E10.09197
G1 X40.836 Y176.059 E10.11143
G1 X40.566 Y175.728 E10.12706
G1 X40.2 Y175.181 E10.15114
G1 X39.886 Y174.593 E10.17553
G1 X39.653 Y174.01 E10.1985
G1 X39.509 Y173.525 E10.21701
G1 X39.414 Y173.092 E10.23323
G1 X39.375 Y172.718 E10.24698
G1 X39.358 Y172.72 E10.24761
G1 X39.308 Y171.98 E10.27475
G1 X39.3 Y171.527 E10.29132
G1 X39.3 Y88.664 E13.32296
G1 X39.308 Y88.074 E13.34455
G1 X39.317 Y87.875 E13.35184
G1 X39.359 Y87.321 E13.37216
G1 X39.445 Y86.758 E13.393
G1 X39.589 Y86.189 E13.41447
G1 X39.767 Y85.687 E13.43396
G1 X40.087 Y85.012 E13.46129
G1 X40.437 Y84.452 E13.48545
G1 X40.833 Y83.947 E13.50893
G1 X41.323 Y83.439 E13.53475
G1 X41.775 Y83.065 E13.55622
G1 X41.917 Y82.957 E13.56274
G1 X42.959 Y82.211 E13.60963
G1 X43.052 Y82.133 E13.61407
G1 X44.222 Y81.295 E13.66672
G1 X46.408 Y79.634 E13.76717
G1 X48.509 Y77.942 E13.86586
G1 X50.638 Y76.126 E13.96824
G1 X52.638 Y74.318 E14.06688
G1 X54.625 Y72.417 E14.16749
G1 X56.557 Y70.463 E14.26802
G1 X58.429 Y68.46 E14.36833
G1 X60.219 Y66.431 E14.46732
G1 X61.99 Y64.305 E14.56856
G1 X63.661 Y62.18 E14.66746
G1 X65.31 Y59.958 E14.76869
G1 X66.877 Y57.715 E14.8688
G1 X68.36 Y55.461 E14.96751
G1 X69.821 Y53.097 E15.06919
G1 X71.184 Y50.742 E15.16874
G1 X72.492 Y48.329 E15.26916
G1 X73.723 Y45.896 E15.36892
G1 X74.915 Y43.366 E15.47124
G1 X75.521 Y42.002 E15.52584
G1 X75.52 Y42.002 E15.52588
G1 X76.061 Y40.758 E15.57551
G1 X76.067 Y40.745 E15.57604
G1 X76.302 Y40.298 E15.59451
G1 X76.67 Y39.821 E15.61655
G1 X77.045 Y39.43 E15.63637
G1 X77.069 Y39.405 E15.63764
G1 X79.256 Y37.218 E15.7508
G1 X79.289 Y37.185 E15.75251
G1 X79.773 Y36.715 E15.77719
G1 X80.162 Y36.393 E15.79566
G1 X80.597 Y36.136 E15.81415
G1 X81.068 Y35.95 E15.83268
G1 X81.561 Y35.841 E15.85115
G1 X82.114 Y35.805 E15.87142
G1 X82.523 Y35.8 E15.88639
G1 X117.339 Y35.8 E17.16017
G1 X118.04 Y35.81 E17.18582
G1 X118.499 Y35.85 E17.20268
G0 F4500 X118.53 Y35.45
G1 F1200 X119.053 Y35.569 E17.2223
G1 X119.552 Y35.764 E17.2419
G1 X120.017 Y36.032 E17.26154
G1 X120.443 Y36.371 E17.28146
G1 X120.825 Y36.734 E17.30074
G1 X120.857 Y36.765 E17.30237
G1 X123.065 Y38.973 E17.41661
G1 X123.576 Y39.5 E17.44347
G1 X123.874 Y39.849 E17.46026
G1 X124.163 Y40.301 E17.47989
G1 X124.306 Y40.598 E17.49195
G1 X124.578 Y41.237 E17.51735
G1 X125.712 Y43.794 E17.61969
G1 X126.872 Y46.216 E17.71794
G1 X128.137 Y48.681 E17.81931
G1 X129.428 Y51.031 E17.91741
G1 X130.817 Y53.395 E18.01772
G1 X132.274 Y55.723 E18.1182
G1 X133.778 Y57.981 E18.21746
G1 X135.36 Y60.217 E18.31767
G1 X136.989 Y62.385 E18.41688
G1 X138.68 Y64.511 E18.51627
G1 X140.446 Y66.604 E18.61646
G1 X142.264 Y68.639 E18.7163
G1 X144.135 Y70.619 E18.81597
G1 X146.063 Y72.546 E18.9157
G1 X148.039 Y74.414 E19.01518
G1 X150.081 Y76.235 E19.11528
G1 X152.18 Y78.005 E19.21573
G1 X154.283 Y79.68 E19.3141
G1 X156.482 Y81.329 E19.41466
G1 X158.377 Y82.677 E19.49974
G1 X158.822 Y83.037 E19.52068
G1 X159.363 Y83.561 E19.54824
G1 X159.738 Y84.012 E19.5697
G1 X160.046 Y84.453 E19.58938
G1 X160.297 Y84.882 E19.60756
G1 X160.547 Y85.401 E19.62864
G1 X160.717 Y85.836 E19.64572
G1 X160.882 Y86.386 E19.66673
G1 X160.978 Y86.828 E19.68328
G1 X161.064 Y87.495 E19.70789
G1 X161.092 Y88.001 E19.72643
G1 X161.1 Y88.429 E19.74209
G1 X161.1 Y171.342 E22.77556
G1 X161.092 Y171.932 E22.79714
G1 X161.082 Y172.155 E22.80531
G1 X161.04 Y172.709 E22.82564
G1 X160.948 Y173.317 E22.84813
G1 X160.799 Y173.91 E22.8705
G1 X160.616 Y174.434 E22.89081
G1 X160.426 Y174.865 E22.90804
G1 X160.186 Y175.317 E22.92677
G1 X159.897 Y175.768 E22.94636
G1 X159.568 Y176.2 E22.96623
G1 X159.247 Y176.561 E22.98391
G1 X158.83 Y176.958 E23.00497
G1 X158.481 Y177.243 E23.02146
G1 X158.076 Y177.528 E23.03957
G1 X157.598 Y177.808 E23.05984
G1 X157.127 Y178.034 E23.07895
G1 X156.708 Y178.2 E23.09544
G1 X156.114 Y178.382 E23.11817
G1 X155.672 Y178.478 E23.13472
G1 X155.005 Y178.564 E23.15933
G1 X154.499 Y178.592 E23.17787
G1 X154.032 Y178.6 E23.19496
G1 X46.158 Y178.6 E27.14165
G1 X45.568 Y178.592 E27.16324
G1 X45.345 Y178.582 E27.1714
G1 X44.791 Y178.54 E27.19173
G1 X44.183 Y178.448 E27.21423
G1 X43.585 Y178.297 E27.23679
G1 X43.062 Y178.114 E27.25707
G1 X42.635 Y177.926 E27.27414
G1 X42.183 Y177.686 E27.29286
G1 X41.732 Y177.397 E27.31246
G1 X41.293 Y177.062 E27.33266
G1 X40.933 Y176.741 E27.35031
G1 X40.534 Y176.322 E27.37147
G1 X40.255 Y175.979 E27.38765
G1 X39.945 Y175.533 E27.40752
G1 X39.693 Y175.1 E27.42585
G1 X39.453 Y174.6 E27.44614
G1 X39.279 Y174.152 E27.46373
G1 X39.121 Y173.625 E27.48386
G1 X39.022 Y173.175 E27.50071
G1 X38.978 Y172.755 E27.51616
G1 X38.96 Y172.757 E27.51683
G1 X38.908 Y171.999 E27.54462
G1 X38.9 Y171.532 E27.56171
G1 X38.9 Y88.658 E30.59375
G1 X38.908 Y88.068 E30.61534
G1 X38.918 Y87.845 E30.62351
G1 X38.96 Y87.291 E30.64383
G1 X39.051 Y86.685 E30.66625
G1 X39.203 Y86.084 E30.68893
G1 X39.395 Y85.538 E30.71011
G1 X39.576 Y85.13 E30.72644
G1 X39.828 Y84.661 E30.74592
G1 X40.102 Y84.233 E30.76451
G1 X40.425 Y83.807 E30.78407
G1 X40.758 Y83.434 E30.80236
G1 X41.17 Y83.042 E30.82317
G1 X41.684 Y82.632 E30.84723
G1 X42.649 Y81.941 E30.89065
G1 X42.819 Y81.808 E30.89855
G1 X43.993 Y80.968 E30.95136
G1 X46.138 Y79.337 E31.04995
G1 X48.283 Y77.61 E31.1507
G1 X50.348 Y75.849 E31.24999
G1 X52.376 Y74.015 E31.35003
G1 X54.348 Y72.13 E31.44984
G1 X56.264 Y70.192 E31.54954
G1 X58.121 Y68.205 E31.64904
G1 X59.928 Y66.155 E31.74902
G1 X61.667 Y64.068 E31.84841
G1 X63.358 Y61.918 E31.94849
G1 X64.976 Y59.737 E32.04784
G1 X66.547 Y57.488 E32.14821
G1 X68.019 Y55.251 E32.24618
G1 X69.477 Y52.892 E32.34764
G1 X70.835 Y50.545 E32.44685
G1 X72.149 Y48.122 E32.54769
G1 X73.362 Y45.724 E32.64601
G1 X74.543 Y43.217 E32.7474
G1 X75.165 Y41.817 E32.80345
G1 X75.695 Y40.598 E32.85208
G1 X75.699 Y40.588 E32.85248
G1 X75.946 Y40.112 E32.8721
G1 X76.378 Y39.548 E32.89809
G1 X76.759 Y39.15 E32.91825
G1 X76.786 Y39.122 E32.91967
G1 X78.973 Y36.935 E33.03283
G1 X79.01 Y36.898 E33.03474
G1 X79.494 Y36.428 E33.05942
G1 X79.906 Y36.084 E33.07906
G1 X80.364 Y35.805 E33.09868
G1 X80.858 Y35.598 E33.11828
G1 X81.378 Y35.466 E33.13791
G1 X82.01 Y35.408 E33.16113
G1 X82.518 Y35.4 E33.17971
G1 X117.344 Y35.4 E34.45386
G1 X118.045 Y35.41 E34.47951
G1 X118.53 Y35.45 E34.49732
;MESH:Asiento_Motor.stl
G0 F4500 X117.745 Y38.335
G0 X117.745 Y39.618
G0 X94.971 Y47.861
G0 X94.034 Y48.292
G0 X93.135 Y48.796
G0 X92.277 Y49.369
G0 X91.467 Y50.009
G0 X90.708 Y50.708
G0 X90.009 Y51.467
G0 X87.527 Y54.833
;TYPE:WALL-INNER
G1 F1200 X86.821 Y56.748 E34.57199
G1 X86.811 Y56.775 E34.57304
G1 X86.873 Y56.775 E34.57402
G1 X86.893 Y56.775 E34.57415
G1 X86.887 Y56.796
G1 X86.873 Y56.846 E34.57462
G1 X86.666 Y57.887 E34.61345
G1 X86.665 Y57.902 E34.614
G1 X86.541 Y58.941 E34.65229
G1 X86.5 Y59.999 E34.69102
G1 X86.542 Y61.06 E34.72987
G1 X86.666 Y62.111 E34.76859
G1 X86.873 Y63.151 E34.80739
G1 X87.16 Y64.174 E34.84626
G1 X87.527 Y65.167 E34.88499
G1 X87.97 Y66.13 E34.92377
G1 X88.489 Y67.054 E34.96255
G1 X89.077 Y67.935 E35.0013
G1 X89.735 Y68.768 E35.04014
G1 X90.453 Y69.547 E35.0789
G1 X91.232 Y70.265 E35.11766
G1 X92.065 Y70.923 E35.15649
G1 X92.946 Y71.511 E35.19524
G1 X93.87 Y72.03 E35.23402
G1 X94.833 Y72.473 E35.2728
G1 X96.748 Y73.179 E35.34747
G1 X96.775 Y73.189 E35.34853
G1 X96.775 Y73.127 E35.3495
G1 X96.775 Y73.107 E35.34963
G1 X96.796 Y73.113
G1 X96.846 Y73.127 E35.3501
G1 X97.887 Y73.334 E35.38894
G1 X97.902 Y73.335 E35.38949
G1 X98.941 Y73.459 E35.42777
G1 X100 Y73.5 E35.46654
G1 X101.06 Y73.458 E35.50535
G1 X102.111 Y73.334 E35.54407
G1 X103.151 Y73.127 E35.58287
G1 X104.174 Y72.84 E35.62174
G1 X105.167 Y72.473 E35.66047
G1 X106.13 Y72.03 E35.69926
G1 X107.054 Y71.511 E35.73803
G1 X107.935 Y70.923 E35.77678
G1 X108.768 Y70.265 E35.81562
G1 X109.547 Y69.547 E35.85438
G1 X110.265 Y68.768 E35.89314
G1 X110.923 Y67.935 E35.93198
G1 X111.511 Y67.054 E35.97073
G1 X112.03 Y66.13 E36.0095
G1 X112.473 Y65.167 E36.04828
G1 X113.179 Y63.252 E36.12295
G1 X113.189 Y63.225 E36.12401
G1 X113.127 Y63.225 E36.12499
G1 X113.107 Y63.225 E36.12511
G1 X113.113 Y63.204
G1 X113.127 Y63.154 E36.12559
G1 X113.334 Y62.113 E36.16442
G1 X113.335 Y62.098 E36.16497
G1 X113.459 Y61.059 E36.20325
G1 X113.5 Y60.001 E36.24199
G1 X113.458 Y58.94 E36.28084
G1 X113.334 Y57.889 E36.31956
G1 X113.127 Y56.849 E36.35835
G1 X112.84 Y55.826 E36.39722
G1 X112.473 Y54.833 E36.43596
G1 X112.03 Y53.87 E36.47474
G1 X111.511 Y52.946 E36.51351
G1 X110.923 Y52.065 E36.55226
G1 X110.265 Y51.232 E36.5911
G1 X109.547 Y50.453 E36.62986
G1 X108.768 Y49.735 E36.66862
G1 X107.935 Y49.077 E36.70746
G1 X107.054 Y48.489 E36.74621
G1 X106.13 Y47.97 E36.78498
G1 X105.167 Y47.527 E36.82377
G1 X103.252 Y46.821 E36.89844
G1 X103.225 Y46.811 E36.89949
G1 X103.225 Y46.873 E36.90047
G1 X103.225 Y46.893 E36.9006
G1 X103.204 Y46.887
G1 X103.154 Y46.873 E36.90107
G1 X102.113 Y46.666 E36.9399
G1 X102.098 Y46.665 E36.94045
G1 X101.059 Y46.541 E36.97873
G1 X100.001 Y46.5 E37.01747
G1 X98.94 Y46.542 E37.05632
G1 X97.887 Y46.666 E37.09511
G1 X96.849 Y46.873 E37.13384
G1 X95.826 Y47.16 E37.17271
G1 X94.833 Y47.527 E37.21144
G1 X93.87 Y47.97 E37.25022
G1 X92.946 Y48.489 E37.289
G1 X92.065 Y49.077 E37.32775
G1 X91.232 Y49.735 E37.36658
G1 X90.453 Y50.453 E37.40534
G1 X89.735 Y51.232 E37.4441
G1 X89.077 Y52.065 E37.48294
G1 X88.489 Y52.946 E37.52169
G1 X87.97 Y53.87 E37.56047
G1 X87.527 Y54.833 E37.59925
G0 F4500 X87.897 Y54.986
G1 F1200 X87.39 Y56.362 E37.6529
G1 X87.385 Y56.375 E37.65341
G1 X87.422 Y56.375 E37.65401
G1 X87.262 Y56.94 E37.67549
G1 X87.061 Y57.95 E37.71317
G1 X86.94 Y58.972 E37.75082
G1 X86.9 Y59.999 E37.78843
G1 X86.941 Y61.029 E37.82614
G1 X87.061 Y62.048 E37.86368
G1 X87.262 Y63.058 E37.90136
G1 X87.541 Y64.05 E37.93906
G1 X87.897 Y65.014 E37.97665
G1 X88.327 Y65.948 E38.01427
G1 X88.83 Y66.845 E38.0519
G1 X89.401 Y67.7 E38.08951
G1 X90.039 Y68.508 E38.12718
G1 X90.736 Y69.264 E38.1648
G1 X91.492 Y69.961 E38.20242
G1 X92.3 Y70.599 E38.24009
G1 X93.155 Y71.17 E38.2777
G1 X94.052 Y71.673 E38.31533
G1 X94.986 Y72.103 E38.35295
G1 X96.362 Y72.61 E38.4066
G1 X96.375 Y72.615 E38.40711
G1 X96.375 Y72.578 E38.40771
G1 X96.94 Y72.738 E38.42919
G1 X97.95 Y72.939 E38.46687
G1 X98.972 Y73.06 E38.50452
G1 X100 Y73.1 E38.54216
G1 X101.029 Y73.059 E38.57984
G1 X102.048 Y72.939 E38.61738
G1 X103.058 Y72.738 E38.65505
G1 X104.05 Y72.459 E38.69275
G1 X105.014 Y72.103 E38.73035
G1 X105.948 Y71.673 E38.76797
G1 X106.845 Y71.17 E38.8056
G1 X107.7 Y70.599 E38.84321
G1 X108.508 Y69.961 E38.88088
G1 X109.264 Y69.264 E38.9185
G1 X109.961 Y68.508 E38.95612
G1 X110.599 Y67.7 E38.99378
G1 X111.17 Y66.845 E39.0314
G1 X111.673 Y65.948 E39.06903
G1 X112.103 Y65.014 E39.10664
G1 X112.61 Y63.638 E39.1603
G1 X112.615 Y63.625 E39.16081
G1 X112.578 Y63.625 E39.16141
G1 X112.738 Y63.06 E39.18289
G1 X112.939 Y62.05 E39.22057
G1 X113.06 Y61.028 E39.25822
G1 X113.1 Y60.001 E39.29582
G1 X113.059 Y58.971 E39.33354
G1 X112.939 Y57.952 E39.37107
G1 X112.738 Y56.942 E39.40875
G1 X112.459 Y55.95 E39.44645
G1 X112.103 Y54.986 E39.48405
G1 X111.673 Y54.052 E39.52167
G1 X111.17 Y53.155 E39.55929
G1 X110.599 Y52.3 E39.59691
G1 X109.961 Y51.492 E39.63458
G1 X109.264 Y50.736 E39.6722
G1 X108.508 Y50.039 E39.70982
G1 X107.7 Y49.401 E39.74748
G1 X106.845 Y48.83 E39.7851
G1 X105.948 Y48.327 E39.82272
G1 X105.014 Y47.897 E39.86034
G1 X103.638 Y47.39 E39.91399
G1 X103.625 Y47.385 E39.9145
G1 X103.625 Y47.422 E39.9151
G1 X103.06 Y47.262 E39.93659
G1 X102.05 Y47.061 E39.97426
G1 X101.028 Y46.94 E40.01192
G1 X100.001 Y46.9 E40.04952
G1 X98.971 Y46.941 E40.08723
G1 X97.95 Y47.061 E40.12484
G1 X96.942 Y47.262 E40.16245
G1 X95.95 Y47.541 E40.20015
G1 X94.986 Y47.897 E40.23775
G1 X94.052 Y48.327 E40.27537
G1 X93.155 Y48.83 E40.31299
G1 X92.3 Y49.401 E40.35061
G1 X91.492 Y50.039 E40.38827
G1 X90.736 Y50.736 E40.42589
G1 X90.039 Y51.492 E40.46352
G1 X89.401 Y52.3 E40.50118
G1 X88.83 Y53.155 E40.5388
G1 X88.327 Y54.052 E40.57642
G1 X87.897 Y54.986 E40.61404
G0 F4500 X87.96 Y55.975
;TYPE:WALL-OUTER
G1 F1200 X87.922 Y56.075 E40.61796
G1 X87.651 Y57.034 E40.65442
G1 X87.456 Y58.013 E40.69094
G1 X87.339 Y59.003 E40.72741
G1 X87.3 Y59.999 E40.76388
G1 X87.34 Y60.998 E40.80046
G1 X87.456 Y61.986 E40.83685
G1 X87.651 Y62.965 E40.87337
G1 X87.922 Y63.926 E40.9099
G1 X88.267 Y64.861 E40.94637
G1 X88.684 Y65.766 E40.98282
G1 X89.171 Y66.636 E41.0193
G1 X89.725 Y67.465 E41.05578
G1 X90.343 Y68.248 E41.09227
G1 X91.019 Y68.981 E41.12875
G1 X91.752 Y69.657 E41.16524
G1 X92.535 Y70.275 E41.20173
G1 X93.364 Y70.829 E41.23821
G1 X94.234 Y71.316 E41.27469
G1 X95.139 Y71.733 E41.31114
G1 X95.975 Y72.041 E41.34374
G1 X95.975 Y72.04 E41.34378
G1 X96.075 Y72.078 E41.34598
G1 X97.034 Y72.349 E41.38244
G1 X98.013 Y72.544 E41.41896
G1 X99.003 Y72.661 E41.45543
G1 X100 Y72.7 E41.49193
G1 X100.998 Y72.66 E41.52848
G1 X101.986 Y72.544 E41.56487
G1 X102.965 Y72.349 E41.60139
G1 X103.926 Y72.078 E41.63792
G1 X104.861 Y71.733 E41.67439
G1 X105.766 Y71.316 E41.71084
G1 X106.636 Y70.829 E41.74732
G1 X107.465 Y70.275 E41.7838
G1 X108.248 Y69.657 E41.82029
